X:1
T:Title
%%score { 1 | 2 }
L:1/8
M:4/4
K:E
V:1 treble nm="Grand Piano"
V:2 bass 
V:1
 z4 z2[Q:1/4=100] [CE]2 | [CE]3 [CE] [DF]2 [DG]2 | [CA]2 [CA]2 [CE]2 [EA]2 | B3 B A2 G2 | %4
[M:3/4] A6 |[M:1/4] [CE]2 |[M:4/4] [CE]3 [CE] [DF]2 [DG]2 | [CA]2 [CA]2 [CE]2 [EA]2 | c3 B A2 G2 | %9
[M:3/4] [CA]6 |] %10
V:2
 z4 z2 [A,,A,]2 | [A,,A,]3 [A,,A,] [A,,A,]2 [A,,F,]2 | [A,,E,]2 [A,,E,]2 [A,,A,]2 [C,A,]2 | %3
 [E,G,E]3 [E,DE] [E,CE]2 [E,B,D]2 |[M:3/4] [A,C]6 |[M:1/4] [A,,A,]2 | %6
[M:4/4] [A,,A,]3 [A,,A,] [A,,A,]2 [A,,F,]2 | [A,,E,]2 [A,,E,]2 [A,,A,]2 [C,A,]2 | %8
 [E,A,E]3 [E,G,D] [E,C]2 [E,B,]2 |[M:3/4] [A,,E,]6 |] %10

